X:1
T:The Earth Is the Lord’s
T:The Earth Is the Lord’s
T:Joseph Berg Esenwein
T:Joseph Berg Esenwein, 1894
T:Public Domain Courtesy of the Cyber Hymnal™
T:Public Domain Courtesy of the Cyber Hymnal™
C:Joseph Berg Esenwein
Z:Public Domain
Z:Courtesy of the Cyber Hymnal™
%%score ( 1 2 ) ( 3 4 )
L:1/8
Q:1/4=100
M:4/4
K:D
V:1 treble 
V:2 treble 
V:3 bass 
V:4 bass 
V:1
 [FA]2 | [Fd]2 [Fd]>[Fd] [Fd]2 [EA][EG] | [DF]4 E2 [Ed]2 | [Ec]2 [Ge]>[Fd] (cB)[EG][GB] | %4
w: 1.~The|earth is the Lord’s, and its|full- ness, And|they that up- on * it do|
w: 2.~The|fruits of the earth are His|boun- ties, His|gift is the gold- * en- hued|
w: 3.~The|joys of the har- vest thanks-|giv- ing, The|Lord, bless- èd giv- * er of|
 [FA]6 [FA]2 | G2 [GB]>[Ac] [Bd]2 [Ac][GB] | [DA]4 D2 [GB]2 | [FA]2 [Ge]>[Fd] [Ec]2 [GB][Gc] | %8
w: dwell, For|He its found- a- tions es-|tab- lished— To|Him let your glad an- thems|
w: grain; He|send- eth the sun- shine and|sha- dow, He|giv- eth or hold- eth the|
w: all, Hath|grant- ed to us, un- de-|serv- ing; Then|praise Him, the great and the|
 [Fd]6 z2 ||"^Refrain" [FA]4 [^EB]4 | [FA]>[Fd] [Ac]>[Ad] x4 | [Ge]2 [GB]2 | [Gc]4 [FB]4 | %13
w: swell.|||||
w: rain.|Sing, sing,|sing a- loud His|prais- es,|Sing, sing,|
w: small.|||||
 [EB]>[EA] E>[FA] [FA]4 | [FA]4 [^EB]4 | [FA]>[Fd] [Ac]>[Ad] [Ge]2 [GB]2 | %16
w: |||
w: sing His glor- ious praise;|Glad, glad,|glad thanks- giv- ing ren- der,|
w: |||
 [Fd]>[Ec] [GB]>[GA] [GB]2 [Gc]2 | [Fd]4 z2 x2 |] x6 |] %19
w: |||
w: Sweet- est songs to Je- sus|raise.||
w: |||
V:2
 x2 | x8 | x4 E2 x2 | x4 G2 x2 | x8 | G2 x6 | x4 D2 x2 | x8 | x8 || x8 | x8 | x4 | x8 | %13
 x2 E3/2 x9/2 | x8 | x8 | x8 | x8 |] x6 |] %19
V:3
 [D,D]2 | [D,A,]2 x6 | [D,A,]>[D,A,] [B,,D]2 [B,,E][C,A,] x2 | A,4 [G,B,]2 [^G,B,]2 | %4
w: ~|~|~ ~ ~ ~ ~|~ ~ ~|
 A,2 A,>A, (A,B,)[A,C][A,C] | [D,D]6 [D,D]2 | [G,B,]2 [G,D]>[G,D] [G,D]2 [G,D][G,D] | %7
w: ~ ~ ~ ~ * ~ ~|~ ~|~ ~ ~ ~ ~ ~|
 [F,D]4 [F,D]2 [G,D]2 | [A,D]2 A,>A, [A,,A,]2 [A,,A,][A,,A,] || [D,A,]6 z2 | %10
w: ~ ~ ~|~ ~ ~ ~ ~ ~|~|
 [D,A,]2 [D,A,]2 [D,^G,]2 [D,G,]2 | [D,A,]>[D,A,] [F,A,]>[F,A,] | [G,B,]2 [G,E]2 x4 | %13
w: ~ Sing His prais-|es, ~ ~ ~|~ ~|
 [A,E]4 [A,D]4 | [A,C]>[A,C] [A,C]>[A,C] [D,D]4 | [D,A,]2 [D,A,]2 [D,^G,]2 [D,G,]2 | %16
w: ~ ~|~ ~ ~ ~ ~|~ Glad thanks- giv-|
 [D,A,]>[D,A,] [F,A,]>[F,A,] [G,B,]2 [G,D]2 | A,>A, [A,D]>[A,D] [A,,A,C]2 [A,,E]2 |] [D,A,]4 z2 |] %19
w: ing, * * * * *|||
V:4
 x2 | x8 | x8 | D,2 F,2 x4 | A,2 A,>A, A,2 x2 | x8 | x8 | x8 | x2 A,>A, x4 || x8 | x8 | x4 | x8 | %13
 x8 | x8 | x8 | x8 | A,>A, x6 |] x6 |] %19

